assets/svg/location_icon.svg

<svg fill="none" height="32" viewBox="0 0 33 32" width="33" xmlns="http://www.w3.org/2000/svg"><g stroke="#101820" stroke-width="1.5"><path d="m16.4998 17.9059c.5463 0 1.0873-.1076 1.592-.3166.5047-.2091.9633-.5155 1.3496-.9018s.6927-.8449.9018-1.3496c.209-.5047.3166-1.0457.3166-1.592s-.1076-1.0872-.3166-1.5919c-.2091-.5047-.5155-.9633-.9018-1.3496s-.8449-.6927-1.3496-.9018c-.5047-.20906-1.0457-.31666-1.592-.31666-1.1033 0-2.1614.43826-2.9415 1.21846-.7802.7801-1.2185 1.8382-1.2185 2.9415s.4383 2.1615 1.2185 2.9416c.7801.7802 1.8382 1.2184 2.9415 1.2184z"/><path d="m5.3266 11.3194c2.62667-11.546715 19.7333-11.533381 22.3467.0133 1.5333 6.7733-2.68 12.5067-6.3734 16.0533-1.2905 1.2447-3.0136 1.9403-4.8066 1.9403s-3.5161-.6956-4.8067-1.9403c-3.68-3.5466-7.89333-9.2933-6.36-16.0666z"/></g></svg>

<svg width="33" height="32" viewBox="0 0 33 32" fill="none" xmlns="http://www.w3.org/2000/svg">
<path d="M16.4998 17.9059C17.0461 17.9059 17.5871 17.7983 18.0918 17.5893C18.5965 17.3802 19.0551 17.0738 19.4414 16.6875C19.8277 16.3012 20.1341 15.8426 20.3432 15.3379C20.5522 14.8332 20.6598 14.2922 20.6598 13.7459C20.6598 13.1996 20.5522 12.6587 20.3432 12.154C20.1341 11.6493 19.8277 11.1907 19.4414 10.8044C19.0551 10.4181 18.5965 10.1117 18.0918 9.9026C17.5871 9.69354 17.0461 9.58594 16.4998 9.58594C15.3965 9.58594 14.3384 10.0242 13.5583 10.8044C12.7781 11.5845 12.3398 12.6426 12.3398 13.7459C12.3398 14.8492 12.7781 15.9074 13.5583 16.6875C14.3384 17.4677 15.3965 17.9059 16.4998 17.9059Z" stroke="#101820" stroke-width="1.5"/>
<path d="M5.3266 11.3194C7.95327 -0.227315 25.0599 -0.213981 27.6733 11.3327C29.2066 18.106 24.9933 23.8394 21.2999 27.386C20.0094 28.6307 18.2863 29.3263 16.4933 29.3263C14.7003 29.3263 12.9772 28.6307 11.6866 27.386C8.0066 23.8394 3.79327 18.0927 5.3266 11.3194Z" stroke="#101820" stroke-width="1.5"/>
</svg>
